!!!COM: Gaspar van Weerbeke
!!!CDT: ~1450-~1517
!!!OPR: Missa brevis
!!!OTL: Sanctus
!!!AGN: Mass
!!!SCT: Gas0201d
!!!SCA: Gas0201d
!!!voices: 4
**kern	**text	**kern	**text	**kern	**text	**kern	**text
*part4	*part4	*part3	*part3	*part2	*part2	*part1	*part1
*staff4	*staff4	*staff3	*staff3	*staff2	*staff2	*staff1	*staff1
*I"Bassus	*	*I"Tenor	*	*I"Altus	*	*I"Superius	*
*I'B	*	*I'T	*	*I'A	*	*I'S	*
*clefF4	*	*clefGv2	*	*clefGv2	*	*clefG2	*
*k[b-]	*	*k[b-]	*	*k[b-]	*	*k[b-]	*
*M2/2	*	*M2/2	*	*M2/2	*	*M2/2	*
*met(C|)	*	*met(C|)	*	*met(C|)	*	*met(C|)	*
=1	=1	=1	=1	=1	=1	=1	=1
[1G	.	2r	.	1r	.	1r	.
.	.	2G	San-	.	.	.	.
=2	=2	=2	=2	=2	=2	=2	=2
1G_	.	4.B-y	.	2G	San-	2r	.
.	.	8c	.	.	.	.	.
.	.	4d	.	4.B-y	.	2g	San-
.	.	4e-i	.	.	.	.	.
.	.	.	.	8c	.	.	.
=3	=3	=3	=3	=3	=3	=3	=3
1G_	.	4.d	-ctus,	4d	.	4.b-y	.
.	.	.	.	4e-i	.	.	.
.	.	8c	.	.	.	8cc	.
.	.	8B-yL	.	4d	.	4dd	.
.	.	8AJ	.	.	.	.	.
.	.	4G	.	[4g	.	4ee-i	.
=4	=4	=4	=4	=4	=4	=4	=4
1G]	.	4r	.	4g]	.	2.dd	.
.	.	4.B-y	San-	8fL	.	.	.
.	.	.	.	8e-iJ	.	.	.
.	.	.	.	4d	.	.	.
.	.	8cL	.	.	.	.	.
.	.	8d	.	4g	.	8ccL	.
.	.	8eJ	.	.	.	8b-yJ	.
=5	=5	=5	=5	=5	=5	=5	=5
[1F	ctus,	2.f	.	2c	.	4.a	.
.	.	.	.	.	.	8b-y	.
*	*	*	*	*lig	*	*	*
.	.	.	.	2A	-ctus,	2cc	-ctus,
.	.	8eL	.	.	.	.	.
.	.	8dJ	.	.	.	.	.
=6	=6	=6	=6	=6	=6	=6	=6
*	*	*lig	*	*	*	*	*
*	*	*	*edit	*	*	*	*
2F]	.	2c	-ctus,	2F	.	4r	.
.	.	.	.	.	.	2a	San-
*	*	*	*	*Xlig	*	*	*
*	*edit	*	*	*	*edit	*	*
2D	San-	2d	.	4f	San-	.	.
.	.	.	.	4d	.	4bni	.
*	*	*Xlig	*	*	*	*	*
!!LO:LB:g=original	*	*	*	*	*	*	*	*
=7	=7	=7	=7	=7	=7	=7	=7
*	*	*lig	*	*	*	*	*
2.C	.	2.e	San-	4.g	.	4.cc	.
.	.	.	.	8f	.	8dd	.
.	.	.	.	4e	.	4ee	.
4D	.	[4f	.	4d	.	[4a	.
=8	=8	=8	=8	=8	=8	=8	=8
4F	.	4f]	.	4c	.	4a]	.
*	*	*Xlig	*	*	*	*	*
4G	.	2d	.	4B-y	.	4b-y	.
2E	.	.	.	2G	.	8ccL	.
.	.	.	.	.	.	8b-y	.
.	.	4c#i	.	.	.	8a	.
.	.	.	.	.	.	8gJ	.
=9	=9	=9	=9	=9	=9	=9	=9
2D	-ctus,	2.d	-ctus,	4.A	.	4.f	.
.	.	.	.	8F	.	16gLL	.
.	.	.	.	.	.	16aJJ	.
4BB-y	San-	.	.	4.f	.	4b-y	.
4C	.	4c	San-	.	.	[4a	.
.	.	.	.	8e-i	.	.	.
=10	=10	=10	=10	=10	=10	=10	=10
4D	.	4B-y	.	8dL	.	4a]	.
.	.	.	.	8B-yJ	.	.	.
4E-i	.	4G	.	4c	.	2g	.
2D	.	2A	.	2d	.	.	.
.	.	.	.	.	.	4f#i	.
=11	=11	=11	=11	=11	=11	=11	=11
*	*	*	*Xedit	*	*	*	*
2.E-X	.	2G	-ctus,	2B-y	-ctus,	2.g	-ctus,
*	*	*	*	*	*Xedit	*	*
.	.	4.G	San-	4.B-y	San-	.	.
8DL	.	.	.	.	.	8fL	.
8CJ	.	8A	.	8c	.	8e-iJ	.
=12	=12	=12	=12	=12	=12	=12	=12
4BB-y	.	4B-y	.	4d	.	4d	.
2C	.	4G	.	4c	.	4.e-i	San-
.	.	2c	.	2G	.	.	.
.	.	.	.	.	.	8f	.
4E-i	.	.	.	.	.	4g	.
!!LO:LB:g=original	*	*	*	*	*	*	*	*
=13	=13	=13	=13	=13	=13	=13	=13
4D	.	4d	.	4B-y	.	4f	.
4C	.	4e-i	.	4c	.	4.g	.
2G	-ctus,	2d	-ctus,	4B-y	.	.	.
.	.	.	.	.	.	8a	.
.	.	.	.	[4d	.	[4b-y	.
=14	=14	=14	=14	=14	=14	=14	=14
*	*	*	*edit	*	*	*	*
4r	.	4G	San-	4d]	.	4b-]	.
*	*Xedit	*	*	*	*	*	*
2G	San-	4d	.	4B-y	.	8aL	.
.	.	.	.	.	.	8gJ	.
*	*	*	*	*	*	*	*edit
.	.	4e	.	2A	.	2cc	-ctus,
4F	.	4f	.	.	.	.	.
=15	=15	=15	=15	=15	=15	=15	=15
*lig	*	*	*	*	*	*lig	*
2G	.	4d	.	2G	-ctus,	2b-y	San-
.	.	[2.g	.	.	.	.	.
2C	.	.	.	2r	.	2ee-X	.
*Xlig	*	*	*	*	*	*Xlig	*
=16	=16	=16	=16	=16	=16	=16	=16
4BB-y	.	4g]	.	1r	.	4dd	.
4C	.	4e-j	.	.	.	4cc	.
2G	-ctus,	2d	.	.	.	8bniL	.
.	.	.	.	.	.	8aJ	.
.	.	.	.	.	.	4bni	.
=17	=17	=17	=17	=17	=17	=17	=17
4r	.	2c	-ctus	1r	.	2cc	-ctus,
*	*edit	*	*	*	*	*	*
2C	San-	.	.	.	.	.	.
.	.	2r	.	.	.	4ee-i	San-
4BB-y	.	.	.	.	.	[4dd	.
=18	=18	=18	=18	=18	=18	=18	=18
4B-y	.	1r	.	2r	.	4dd]	.
8AL	.	.	.	.	.	8ccL	.
8GJ	.	.	.	.	.	8b-yJ	.
2F	-ctus,	.	.	4.c	San-	2a	.
.	.	.	.	8d	.	.	.
!!LO:LB:g=original	*	*	*	*	*	*	*	*
=19	=19	=19	=19	=19	=19	=19	=19
4r	.	1r	.	4e-i	.	4g	.
*	*Xedit	*	*	*	*	*	*
4.BB-y	San-	.	.	2d	.	4f	.
*	*	*	*	*	*	*	*Xedit
.	.	.	.	.	.	2d	-ctus
8CL	.	.	.	.	.	.	.
8D	.	.	.	8cL	.	.	.
8EJ-j	.	.	.	8B-yJ	.	.	.
=20	=20	=20	=20	=20	=20	=20	=20
2F	.	1r	.	2A	.	1r	.
4E-j	.	.	.	4G	.	.	.
4D	.	.	.	[4B-y	.	.	.
=21	=21	=21	=21	=21	=21	=21	=21
4.G	.	1r	.	8B-L]	.	1r	.
.	.	.	.	8c	.	.	.
.	.	.	.	8d	.	.	.
8F	.	.	.	8eJ	.	.	.
2D	-ctus,	.	.	2f	.	.	.
=22	=22	=22	=22	=22	=22	=22	=22
4r	.	1r	.	4e	.	1r	.
*	*edit	*	*	*	*	*	*
2B-y	San-	.	.	4d	.	.	.
.	.	.	.	4.g	.	.	.
8AL	.	.	.	.	.	.	.
8GJ	.	.	.	8f	.	.	.
=23	=23	=23	=23	=23	=23	=23	=23
4F	.	1r	.	2d	-ctus,	1r	.
4G	.	.	.	.	.	.	.
4F	.	.	.	4r	.	.	.
*	*	*	*	*	*edit	*	*
[4G	.	.	.	[4b-y	San-	.	.
=24	=24	=24	=24	=24	=24	=24	=24
4G]	.	1r	.	4b-]	.	1r	.
4B-y	.	.	.	8aL	.	.	.
.	.	.	.	8gJ	.	.	.
4A	.	.	.	4f	.	.	.
4G	.	.	.	4g	.	.	.
=25	=25	=25	=25	=25	=25	=25	=25
4.B-y	.	1r	.	4f	.	1r	.
.	.	.	.	4.g	.	.	.
8A	.	.	.	.	.	.	.
4G	.	.	.	.	.	.	.
.	.	.	.	8fL	.	.	.
[4A	.	.	.	8e	.	.	.
.	.	.	.	8dJ	.	.	.
!!LO:PB:g=original	*	*	*	*	*	*	*	*
=26	=26	=26	=26	=26	=26	=26	=26
4A]	.	1r	.	4e	.	1r	.
4F	.	.	.	2d	.	.	.
2E	.	.	.	.	.	.	.
.	.	.	.	4c#i	.	.	.
=27	=27	=27	=27	=27	=27	=27	=27
*	*	*	*Xedit	*	*	*	*
2D	-ctus	2.f	Do-	2d	-ctus	[1a	Do-
2r	.	.	.	2r	.	.	.
.	.	4f	-mi-	.	.	.	.
=28	=28	=28	=28	=28	=28	=28	=28
*	*Xedit	*	*	*	*Xedit	*	*
4.D	Do-	4.f	-nus	4.d	Do-	2a]	.
8C	.	8e	.	8e	.	.	.
8DL	.	4.d	.	8fL	.	2a	-mi-
8EJ	.	.	.	8gJ	.	.	.
[4F	.	.	.	[4a	.	.	.
.	.	8c	.	.	.	.	.
=29	=29	=29	=29	=29	=29	=29	=29
*	*	*lig	*	*	*	*	*
8FL]	.	2A	.	8aL]	.	1a	-nus
8E	.	.	.	8g	.	.	.
8D	.	.	.	8f#i	.	.	.
8CJ	.	.	.	8eJ	.	.	.
2D	-mi-	2d	.	2f#i	-mi-	.	.
*	*	*Xlig	*	*	*	*	*
=30	=30	=30	=30	=30	=30	=30	=30
4.G	-nus	4.B-y	De-	2g	-nus	[1b-y	De-
8F	.	8c	.	.	.	.	.
4D	.	4d	.	4f	.	.	.
*	*	*	*	*	*edit	*	*
[4E-X	De-	[4G	.	[4g	De-	.	.
=31	=31	=31	=31	=31	=31	=31	=31
4E-]	.	8GL]	.	4g]	.	1b-]	.
.	.	8A	.	.	.	.	.
8DL	.	8B-y	.	8fL	.	.	.
8CJ	.	8cJ	.	8e-iJ	.	.	.
4BB-y	.	4d	.	4d	.	.	.
[4E-i	.	[4g	.	4G	-us,	.	.
!!LO:LB:g=original	*	*	*	*	*	*	*	*
=32	=32	=32	=32	=32	=32	=32	=32
4E-]	.	4g]	.	4r	.	1b-y	-us
8DL	.	4e-i	.	4.g	Do-	.	.
8CJ	.	.	.	.	.	.	.
2G	-us	2d	.	.	.	.	.
.	.	.	.	8fL	.	.	.
.	.	.	.	8e	.	.	.
.	.	.	.	8dJ	.	.	.
=33	=33	=33	=33	=33	=33	=33	=33
4.C	Sa-	2c	-us	4.e	.	[1cc	Sa-
8D	.	.	.	8f	.	.	.
4E	.	4r	.	4g	-mi-	.	.
[4F	-ba-	4c	Sa-	4a	-nus	.	.
=34	=34	=34	=34	=34	=34	=34	=34
*	*	*	*	*	*Xedit	*	*
8FL]	.	4A	.	2f	De-	1cc]	.
8GJ	.	.	.	.	.	.	.
4.A	.	4F	.	.	.	.	.
.	.	4.c	-ba-	2e	-us	.	.
8B-y	.	.	.	.	.	.	.
[4c	.	.	.	.	.	.	.
.	.	8d	.	.	.	.	.
=35	=35	=35	=35	=35	=35	=35	=35
8cL]	.	8eL	.	2r	.	1cc	-ba-
8B-y	.	8fJ	.	.	.	.	.
8A	.	2g	.	.	.	.	.
8GJ	.	.	.	.	.	.	.
*	*	*	*	*lig	*	*	*
*	*edit	*	*	*	*	*	*
2A	-oth,	.	.	2c	Sa-	.	.
.	.	4f#i	.	.	.	.	.
=36	=36	=36	=36	=36	=36	=36	=36
*	*	*	*edit	*	*	*	*edit
4G	Sa-	2.g	-oth,	2d	.	4.b-y	-oth,
2G	-ba-	.	.	.	.	.	.
.	.	.	.	.	.	8cc	.
*	*	*	*	*Xlig	*	*	*
.	.	.	.	4.B-y	-ba-	8ddL	.
.	.	.	.	.	.	8ee-iJ	.
[4G	-oth,	8fL	.	.	.	[4dd	.
.	.	8eJ	.	8c	.	.	.
=37	=37	=37	=37	=37	=37	=37	=37
4G]	.	2.d	.	4.d	.	4dd]	.
8FL	.	.	.	.	.	2ff	Sa-
8EJ	.	.	.	8e	.	.	.
2D	.	.	.	8fL	.	.	.
.	.	.	.	8gJ	.	.	.
.	.	4f	Sa-	[4a	.	8eeL	.
.	.	.	.	.	.	8ddJ	.
!!LO:LB:g=original	*	*	*	*	*	*	*	*
=38	=38	=38	=38	=38	=38	=38	=38
4A	Sa-	4e	.	4a]	.	4cc	.
4B-y	.	4d	.	4g	.	2dd	-ba-
*	*	*	*	*lig	*	*	*
*	*	*	*	*	*edit	*	*
2A	-ba-	2e	-ba-	2a	-oth,	.	.
.	.	.	.	.	.	4cc#i	.
=39	=39	=39	=39	=39	=39	=39	=39
4.B-y	-oth,	2d	-oth,	2f	.	4.dd	-oth,
8A	.	.	.	.	.	8cc	.
*	*	*	*	*Xlig	*	*	*
[2F	.	4.f	Sa-	2r	.	4a	.
.	.	.	.	.	.	[4cc	Sa-
.	.	8e	.	.	.	.	.
=40	=40	=40	=40	=40	=40	=40	=40
2F]	.	4.c	.	2f	Sa-	4cc]	.
.	.	.	.	.	.	8b-yL	.
.	.	8d	.	.	.	8aJ	.
*	*	*	*	*col	*	*	*
[2E-X	Sa-	4.e-X	.	4.B-y	-ba-	4g	.
.	.	.	.	.	.	[4b-y	.
.	.	8d	.	8G	.	.	.
*	*	*	*	*Xcol	*	*	*
=41	=41	=41	=41	=41	=41	=41	=41
2E-]	.	4.B-y	.	2G	-oth,	4b-]	.
.	.	.	.	.	.	8aL	.
.	.	8c	.	.	.	8gJ	.
4D	.	2d	.	2A	.	4f	.
[4F	.	.	.	.	.	[4a	.
=42	=42	=42	=42	=42	=42	=42	=42
4F]	.	4.A	.	4r	.	4a]	.
8EL	.	.	.	4F	Sa-	8gL	.
8DJ	.	8B-y	.	.	.	8fJ	.
8CL	.	4.c	.	4.G	.	2e	.
8D	.	.	.	.	.	.	.
8E	.	.	.	.	.	.	.
8FJ	.	8B-y	.	8A	.	.	.
=43	=43	=43	=43	=43	=43	=43	=43
*lig	*	*	*	*	*	*	*
2G	-ba-	4G	.	4B-y	.	4d	.
.	.	4B-y	.	4G	.	2g	-ba-
2D	.	2A	-ba-	2d	-ba-	.	.
.	.	.	.	.	.	4f#i	.
*Xlig	*	*	*	*	*	*	*
=44	=44	=44	=44	=44	=44	=44	=44
*	*Xedit	*	*Xedit	*	*Xedit	*	*Xedit
0G	-oth.	0G	-oth.	0d	-oth.	0g	-oth.
!!LO:LB:g=original	*	*	*	*	*	*	*	*
=45||	=45||	=45||	=45||	=45||	=45||	=45||	=45||
*M2/2	*	*M2/2	*	*M2/2	*	*M2/2	*
*met(C|)	*	*met(C|)	*	*met(C|)	*	*met(C|)	*
*	*	*	*	*lig	*	*	*
!!LO:TX:a:t=[C2]
1r	.	1r	.	[1d	Ple-	2f	Ple-
.	.	.	.	.	.	8fL	.
.	.	.	.	.	.	8g	.
.	.	.	.	.	.	8a	.
.	.	.	.	.	.	8b-yJ	.
=46	=46	=46	=46	=46	=46	=46	=46
1r	.	1r	.	1d]	.	4a	.
.	.	.	.	.	.	4b-y	.
.	.	.	.	.	.	4a	.
.	.	.	.	.	.	4dd	.
=47	=47	=47	=47	=47	=47	=47	=47
1r	.	1r	.	[1e-i	-ni	2g	-ni
.	.	.	.	.	.	8cL	.
.	.	.	.	.	.	8d	.
.	.	.	.	.	.	8e-i	.
.	.	.	.	.	.	8fJ	.
=48	=48	=48	=48	=48	=48	=48	=48
1r	.	1r	.	1e-]	.	4g	.
.	.	.	.	.	.	4c	.
.	.	.	.	.	.	4.g	.
.	.	.	.	.	.	8a	.
*	*	*	*	*Xlig	*	*	*
=49	=49	=49	=49	=49	=49	=49	=49
1r	.	1r	.	2d	sunt	4b-y	sunt
.	.	.	.	.	.	4a	.
.	.	.	.	8dL	.	2dd	.
.	.	.	.	8e	.	.	.
.	.	.	.	8f	.	.	.
.	.	.	.	8gJ	.	.	.
=50	=50	=50	=50	=50	=50	=50	=50
1r	.	1r	.	4f	.	2dd	ce-
.	.	.	.	4g	.	.	.
.	.	.	.	8dL	.	2dd	-li
.	.	.	.	8e	.	.	.
.	.	.	.	8f	.	.	.
.	.	.	.	8gJ	.	.	.
!!LO:PB:g=original	*	*	*	*	*	*	*	*
=51	=51	=51	=51	=51	=51	=51	=51
*	*	*	*	*	*	*	*edit
1r	.	1r	.	2c	ce-	[1ee-X	et
.	.	.	.	8cL	.	.	.
.	.	.	.	8d	.	.	.
.	.	.	.	8e-i	.	.	.
.	.	.	.	8fJ	.	.	.
=52	=52	=52	=52	=52	=52	=52	=52
1r	.	1r	.	4g	.	2ee-]	.
.	.	.	.	4c	.	.	.
.	.	.	.	4.g	.	2ee-i	ter-
.	.	.	.	8a	.	.	.
=53	=53	=53	=53	=53	=53	=53	=53
1r	.	1r	.	2.b-y	-li	2.dd	-ra,
.	.	.	.	8aL	.	8ccL	.
.	.	.	.	8gJ	.	8b-yJ	.
=54	=54	=54	=54	=54	=54	=54	=54
1r	.	1r	.	4f	.	4a	.
*	*	*	*	*	*edit	*	*
.	.	.	.	2g	et	4g	.
.	.	.	.	.	.	2a	.
.	.	.	.	4f#i	.	.	.
=55	=55	=55	=55	=55	=55	=55	=55
*	*	*	*	*	*	*	*Xedit
1r	.	1r	.	4.g	ter-	4g	et
.	.	.	.	.	.	4.b-y	.
.	.	.	.	8f	.	.	.
.	.	.	.	4d	.	.	.
.	.	.	.	.	.	8a	.
.	.	.	.	[4e-i	.	[4cc	ter-
=56	=56	=56	=56	=56	=56	=56	=56
1r	.	1r	.	8e-L]	.	8ccL]	.
.	.	.	.	8d	.	8b-y	.
.	.	.	.	8c	.	8a	.
.	.	.	.	8B-yJ	.	8gJ	.
.	.	.	.	2A	-ra,	4.f#i	.
.	.	.	.	.	.	8e	.
!!LO:LB:g=original	*	*	*	*	*	*	*	*
=57	=57	=57	=57	=57	=57	=57	=57
*	*	*	*	*	*	*lig	*
*	*	*	*	*	*Xedit	*	*
1r	.	1r	.	4.G	et	1g	-ra.
.	.	.	.	8A	.	.	.
.	.	.	.	8B-yL	.	.	.
.	.	.	.	8GJ	.	.	.
.	.	.	.	[4c	ter-	.	.
=58	=58	=58	=58	=58	=58	=58	=58
1r	.	1r	.	8cL]	.	1a	.
.	.	.	.	8B-y	.	.	.
.	.	.	.	8A	.	.	.
.	.	.	.	8GJ	.	.	.
.	.	.	.	4.F#i	.	.	.
.	.	.	.	8E	.	.	.
=59	=59	=59	=59	=59	=59	=59	=59
*col	*	*	*	*	*	*	*
2.G	Glo-	[1B-y	Glo-	1G	-ra.	1g	.
8FL	.	.	.	.	.	.	.
8EJ	.	.	.	.	.	.	.
*Xcol	*	*	*	*	*	*	*
=60	=60	=60	=60	=60	=60	=60	=60
4D	.	2B-]	.	1r	.	1r	.
4.G	.	.	.	.	.	.	.
.	.	2B-y	-ri-	.	.	.	.
8FL	.	.	.	.	.	.	.
8E	.	.	.	.	.	.	.
8DJ	.	.	.	.	.	.	.
*	*	*	*	*	*	*Xlig	*
=61	=61	=61	=61	=61	=61	=61	=61
4C	.	2.c	-a	1r	.	1r	.
4F	.	.	.	.	.	.	.
4E	.	.	.	.	.	.	.
4F	.	4A	.	.	.	.	.
=62	=62	=62	=62	=62	=62	=62	=62
2.G	.	4B-y	.	1r	.	1r	.
.	.	2d	.	.	.	.	.
8FL	.	4e	.	.	.	.	.
8EJ	.	.	.	.	.	.	.
!!LO:LB:g=original	*	*	*	*	*	*	*	*
=63	=63	=63	=63	=63	=63	=63	=63
*	*	*lig	*	*	*	*	*
2D	-ri-	2f	.	1r	.	1r	.
2C	-a	2e	.	.	.	.	.
*	*	*Xlig	*	*	*	*	*
=64	=64	=64	=64	=64	=64	=64	=64
4r	.	4d	tu-	1r	.	1r	.
4.D	tu-	2f	.	.	.	.	.
8EL	.	.	.	.	.	.	.
8F	.	8eL	.	.	.	.	.
8GJ	.	8dJ	.	.	.	.	.
=65	=65	=65	=65	=65	=65	=65	=65
*lig	*	*	*	*	*	*	*
2A	.	2c	.	1r	.	1r	.
2B-y	.	4d	.	.	.	.	.
.	.	[4f	.	.	.	.	.
*Xlig	*	*	*	*	*	*	*
=66	=66	=66	=66	=66	=66	=66	=66
4A	.	8fL]	.	1r	.	1r	.
.	.	8eJ	.	.	.	.	.
4.B-y	.	4.g	.	.	.	.	.
8AL	.	8fL	.	.	.	.	.
8G	.	8e	.	.	.	.	.
8FJ	.	8dJ	.	.	.	.	.
=67	=67	=67	=67	=67	=67	=67	=67
*lig	*	*lig	*	*	*	*	*
2E	-a,	2c#i	-a,	1r	.	1r	.
2D	.	2d	.	.	.	.	.
*Xlig	*	*Xlig	*	*	*	*	*
=68	=68	=68	=68	=68	=68	=68	=68
*	*	*lig	*	*	*	*	*
*	*edit	*	*edit	*	*	*	*
2G	glo-	2B-y	glo-	1r	.	1r	.
4E	.	2c	-ri-	.	.	.	.
[4F	-ri-	.	.	.	.	.	.
*	*	*Xlig	*	*	*	*	*
!!LO:LB:g=original	*	*	*	*	*	*	*	*
=69	=69	=69	=69	=69	=69	=69	=69
8FL]	.	2d	-a	1r	.	1r	.
8E	.	.	.	.	.	.	.
8D	.	.	.	.	.	.	.
8CJ	.	.	.	.	.	.	.
4D	-a	4B-y	.	.	.	.	.
[4E-j	tu-	[4c	tu-	.	.	.	.
=70	=70	=70	=70	=70	=70	=70	=70
8EL-]	.	8cL]	.	1r	.	1r	.
8DJ	.	8B-y	.	.	.	.	.
2G	.	8A	.	.	.	.	.
.	.	8GJ	.	.	.	.	.
.	.	2A	.	.	.	.	.
4F#i	.	.	.	.	.	.	.
=71	=71	=71	=71	=71	=71	=71	=71
1G	-a.	1G	-a.	1r	.	1r	.
=72	=72	=72	=72	=72	=72	=72	=72
*lig	*	*	*	*	*	*	*
*	*Xedit	*	*Xedit	*	*	*	*
2D	O-	1d	O-	1f	O-	1b-y	O-
2BB-y	.	.	.	.	.	.	.
=73	=73	=73	=73	=73	=73	=73	=73
*	*	*lig	*	*	*	*	*
1F	.	2c	-san-	1f	-san-	1a	-san-
.	.	2A	.	.	.	.	.
*Xlig	*	*Xlig	*	*	*	*	*
=74	=74	=74	=74	=74	=74	=74	=74
*lig	*	*lig	*	*lig	*	*lig	*
2G	-san-	2B-y	-na	2d	-na	1g	-na
2C	.	2c	.	2e-i	.	.	.
*	*	*Xlig	*	*	*	*	*
=75	=75	=75	=75	=75	=75	=75	=75
1D	.	2A	.	1d	.	1f	.
*	*	*	*edit	*	*	*	*
.	.	4.F	in	.	.	.	.
.	.	8G	.	.	.	.	.
*Xlig	*	*	*	*Xlig	*	*Xlig	*
!!LO:PB:g=original	*	*	*	*	*	*	*	*
=76	=76	=76	=76	=76	=76	=76	=76
*lig	*	*	*	*lig	*	*	*
2F	-na,	2A	ex-	2c	in	2r	.
*	*	*lig	*	*	*	*	*
2BB-y	.	2B-y	.	2d	.	4.f	in
.	.	.	.	.	.	8g	.
*	*	*lig	*	*Xlig	*	*	*
*Xlig	*	*	*	*	*	*	*
=77	=77	=77	=77	=77	=77	=77	=77
*lig	*	*	*	*	*	*	*
*	*edit	*	*	*lig	*	*lig	*
2F	o-	2A	-cel-	2c	ex-	2a	ex-
*	*	*	*	*	*	*	*
*	*	*Xlig	*	*	*	*	*
*	*	*lig	*	*	*	*	*
2G	.	2d	.	2B-y	.	2b-y	.
*	*	*	*	*Xlig	*	*Xlig	*
*Xlig	*	*	*	*	*	*	*
=78	=78	=78	=78	=78	=78	=78	=78
2A	-san-	2c	.	2.F	-cel-	2a	-cel-
*	*	*Xlig	*	*	*	*	*
*	*	*lig	*	*	*	*	*
2D	-na	2f	.	.	.	2dd	.
.	.	.	.	4G	.	.	.
*	*	*	*	*	*	*lig	*
=79	=79	=79	=79	=79	=79	=79	=79
2r	.	2e	.	2A	-sis,	2cc	.
*	*	*Xlig	*	*	*	*	*
*	*Xedit	*	*	*	*	*	*
2D	in	4d	.	4r	.	2ff	.
*	*	*	*	*	*edit	*	*
.	.	[4d	.	[4a	o-	.	.
*	*	*	*	*	*	*Xlig	*
=80	=80	=80	=80	=80	=80	=80	=80
*lig	*	*	*	*	*	*	*
2A	ex-	4d]	.	2a]	.	2ee	.
.	.	4c	.	.	.	.	.
*	*	*lig	*	*	*	*	*
2B-y	.	2d	-sis,	4f	-san-	4dd	.
.	.	.	.	4g	.	[4dd	.
*	*	*lig	*	*	*	*	*
*Xlig	*	*	*	*	*	*	*
=81	=81	=81	=81	=81	=81	=81	=81
2A	-cel-	2e	.	2a	-na,	4dd]	.
.	.	.	.	.	.	4cc	.
*	*	*Xlig	*	*	*	*	*
*	*	*	*Xedit	*	*	*	*
4B-y	.	4d	in	4r	.	4dd	.
4G	.	[4g	.	[4d	o-	4b-y	.
=82	=82	=82	=82	=82	=82	=82	=82
*	*edit	*	*	*	*	*	*edit
2D	-sis,	4g]	.	2d]	.	2a	-sis,
.	.	4f	.	.	.	.	.
4E	in	4g	.	4Bnj	-san-	4g	in
4C	.	4e	.	4c	.	[4cc	.
!!LO:LB:g=original	*	*	*	*	*	*	*	*
=83	=83	=83	=83	=83	=83	=83	=83
2G	ex-	2d	.	2G	-na	4cc]	.
.	.	.	.	.	.	4bnj	.
4A	.	4c	ex-	4r	.	4cc	.
*	*	*	*	*	*Xedit	*	*
4F	.	[4f	.	[4c	in	4a	.
=84	=84	=84	=84	=84	=84	=84	=84
2C	-cel-	4f]	.	2c]	.	2g	.
.	.	4e	.	.	.	.	.
4D	.	4f	.	4A	ex-	4f	ex-
4BB-y	.	4d	.	4B-y	.	[4b-y	.
=85	=85	=85	=85	=85	=85	=85	=85
2F	-sis,	2c	.	4F	.	4b-]	.
.	.	.	.	4f	-cel-	4a	.
4G	in	4B-y	.	4d	.	4b-y	.
4E	.	4c	.	4e	.	4g	.
=86	=86	=86	=86	=86	=86	=86	=86
4D	.	4.d	.	4f	.	4.f	.
4B-y	.	.	.	4d	.	.	.
.	.	8e	.	.	.	8g	.
4A	.	4f	.	4c	.	4a	.
4G	.	4g	.	[4d	.	4b-y	.
=87	=87	=87	=87	=87	=87	=87	=87
2D	ex-	4f	.	8dL]	.	4a	.
.	.	.	.	8eJ	.	.	.
.	.	2d	.	4f	.	2b-y	.
2G	.	.	.	4B-y	.	.	.
.	.	8cL	.	[4d	.	8aL	.
.	.	8B-yJ	.	.	.	8gJ	.
=88	=88	=88	=88	=88	=88	=88	=88
4D	-cel-	4A	.	4d]	.	4f	.
4E-j	.	4G	.	4c	.	2g	-cel-
2D	.	2A	-cel-	2d	.	.	.
.	.	.	.	.	.	4f#i	.
=89	=89	=89	=89	=89	=89	=89	=89
*	*Xedit	*	*	*	*	*	*Xedit
0G	-sis.	0G	-sis.	0d	-sis.	0g	-sis.
!!LO:LB:g=original	*	*	*	*	*	*	*	*
=90||	=90||	=90||	=90||	=90||	=90||	=90||	=90||
*M2/2	*	*M2/2	*	*M2/2	*	*M2/2	*
*met(C|)	*	*met(C|)	*	*met(C|)	*	*met(C|)	*
1r	.	1r	.	2g	Be-	1r	.
.	.	.	.	4g	-ne-	.	.
.	.	.	.	[4g	-di-	.	.
=91	=91	=91	=91	=91	=91	=91	=91
1r	.	1r	.	4g]	.	2dd	Be-
.	.	.	.	4f	.	.	.
.	.	.	.	2g	.	4dd	-ne-
.	.	.	.	.	.	[4dd	-di-
=92	=92	=92	=92	=92	=92	=92	=92
*	*	*	*	*lig	*	*	*
1r	.	1r	.	2e	-ctus,	4dd]	.
.	.	.	.	.	.	4cc	.
.	.	.	.	2d	.	2dd	.
*	*	*	*	*Xlig	*	*	*
=93	=93	=93	=93	=93	=93	=93	=93
*	*	*	*	*	*	*lig	*
*	*	*	*	*	*edit	*	*edit
1r	.	1r	.	2g	be-	2b-y	-ctus,
.	.	.	.	4f	-ne-	2a	.
.	.	.	.	[4d	-di-	.	.
*	*	*	*	*	*	*Xlig	*
=94	=94	=94	=94	=94	=94	=94	=94
1r	.	1r	.	4d]	.	2dd	be
.	.	.	.	8cL	.	.	.
.	.	.	.	8B-yJ	.	.	.
.	.	.	.	2A	-ctus,	4cc	ne-
.	.	.	.	.	.	[4a	-di-
=95	=95	=95	=95	=95	=95	=95	=95
1r	.	1r	.	2d	be-	8aL]	.
.	.	.	.	.	.	8gJ	.
.	.	.	.	.	.	4f	.
.	.	.	.	4c	-ne-	2e	-ctus,
.	.	.	.	[4A	-di-	.	.
!!LO:LB:g=original	*	*	*	*	*	*	*	*
=96	=96	=96	=96	=96	=96	=96	=96
1r	.	1r	.	8AL]	.	2a	be-
.	.	.	.	8B-yJ	.	.	.
.	.	.	.	2c	.	.	.
.	.	.	.	.	.	4g	-ne-
.	.	.	.	8B-yL	.	[4e	-di-
.	.	.	.	8AJ	.	.	.
=97	=97	=97	=97	=97	=97	=97	=97
*	*	*	*	*lig	*	*	*
1r	.	1r	.	2G	.	8eL]	.
.	.	.	.	.	.	8fJ	.
.	.	.	.	.	.	2g	.
.	.	.	.	[2B-y	.	.	.
.	.	.	.	.	.	8fL	.
.	.	.	.	.	.	8eJ	.
=98	=98	=98	=98	=98	=98	=98	=98
1r	.	1r	.	4B-]	.	4d	.
*	*	*	*	*Xlig	*	*	*
.	.	.	.	4c	.	2g	.
.	.	.	.	2A	.	.	.
.	.	.	.	.	.	4f#i	.
=99	=99	=99	=99	=99	=99	=99	=99
*	*	*	*	*	*	*	*Xedit
1r	.	1r	.	2G	-ctus	1g	-ctus
.	.	.	.	4r	.	.	.
*	*	*	*	*	*Xedit	*	*
.	.	.	.	[4g	qui	.	.
=100	=100	=100	=100	=100	=100	=100	=100
1r	.	1r	.	4g]	.	4r	.
.	.	.	.	8fL	.	2dd	qui
.	.	.	.	8eJ	.	.	.
.	.	.	.	4d	.	.	.
.	.	.	.	4g	.	8ccL	.
.	.	.	.	.	.	8b-yJ	.
=101	=101	=101	=101	=101	=101	=101	=101
1r	.	1r	.	4f	.	4a	.
.	.	.	.	4g	.	4dd	.
.	.	.	.	4e	.	4cc	.
.	.	.	.	4d	.	4dd	.
!!LO:PB:g=original	*	*	*	*	*	*	*	*
=102	=102	=102	=102	=102	=102	=102	=102
1r	.	1r	.	4g	.	4b-y	.
.	.	.	.	4f	.	4a	.
.	.	.	.	4g	.	4dd	.
.	.	.	.	[4a	ve-	[4cc	ve-
=103	=103	=103	=103	=103	=103	=103	=103
1r	.	1r	.	8aL]	.	4cc]	.
.	.	.	.	8gJ	.	.	.
.	.	.	.	2g	.	4b-y	.
.	.	.	.	.	.	2a	.
.	.	.	.	4f#i	.	.	.
=104	=104	=104	=104	=104	=104	=104	=104
1r	.	2r	.	1g	-nit	[1g	-nit
.	.	[2G	qui	.	.	.	.
=105	=105	=105	=105	=105	=105	=105	=105
1r	.	4G]	.	1r	.	1g]	.
.	.	4A	.	.	.	.	.
.	.	4B-y	.	.	.	.	.
.	.	4c	.	.	.	.	.
=106	=106	=106	=106	=106	=106	=106	=106
2r	.	4A	.	1r	.	1r	.
.	.	2d	ve-	.	.	.	.
[2D	qui	.	.	.	.	.	.
.	.	8cL	.	.	.	.	.
.	.	8B-yJ	.	.	.	.	.
=107	=107	=107	=107	=107	=107	=107	=107
4D]	.	4A	.	1r	.	1r	.
4E	.	4G	.	.	.	.	.
4.F	.	2A	-nit,	.	.	.	.
8G	.	.	.	.	.	.	.
=108	=108	=108	=108	=108	=108	=108	=108
*	*	*	*edit	*	*	*	*
4E	.	4G	qui	1r	.	1r	.
2A	ve-	2f	ve-	.	.	.	.
8GL	.	8eL	.	.	.	.	.
8FJ	.	8dJ	.	.	.	.	.
!!LO:LB:g=original	*	*	*	*	*	*	*	*
=109	=109	=109	=109	=109	=109	=109	=109
4E	.	4c	.	1r	.	1r	.
*	*	*lig	*	*	*	*	*
4F	.	2d	.	.	.	.	.
4D	.	.	.	.	.	.	.
[4B-y	.	[4G	.	.	.	.	.
=110	=110	=110	=110	=110	=110	=110	=110
4B-]	.	4G]	.	1r	.	1r	.
*	*	*Xlig	*	*	*	*	*
8AL	.	4B-y	.	.	.	.	.
8GJ	.	.	.	.	.	.	.
4F	.	4A	.	.	.	.	.
*	*edit	*	*	*	*	*	*
[4G	-nit,	4G	.	.	.	.	.
=111	=111	=111	=111	=111	=111	=111	=111
*	*	*col	*	*	*	*	*
4G]	.	4.B-y	.	1r	.	1r	.
4B-y	qui	.	.	.	.	.	.
.	.	8A	.	.	.	.	.
*	*	*Xcol	*	*	*	*	*
4A	.	4F	-nit,	.	.	.	.
4G	.	4G	.	.	.	.	.
=112	=112	=112	=112	=112	=112	=112	=112
4.B-y	ve-	4.d	qui	1r	.	1r	.
8A	.	8e	.	.	.	.	.
4F	.	4f	.	.	.	.	.
*	*	*lig	*	*	*	*	*
[4G	.	[4e	ve-	.	.	.	.
=113	=113	=113	=113	=113	=113	=113	=113
4G]	.	4e]	.	1r	.	1r	.
4F	.	2d	.	.	.	.	.
2E	.	.	.	.	.	.	.
*	*	*Xlig	*	*	*	*	*
.	.	4c#i	.	.	.	.	.
=114	=114	=114	=114	=114	=114	=114	=114
4.D	-nit,	2.d	-nit,	1r	.	1r	.
8E	.	.	.	.	.	.	.
8FL	.	.	.	.	.	.	.
8GJ	.	.	.	.	.	.	.
4A	.	[4f	qui	.	.	.	.
!!LO:LB:g=original	*	*	*	*	*	*	*	*
=115	=115	=115	=115	=115	=115	=115	=115
4D	qui	4f]	.	1r	.	1r	.
4.F	ve-	8e-ijL	.	.	.	.	.
.	.	8dJ	.	.	.	.	.
.	.	8cL	.	.	.	.	.
8G	.	8B-yJ	.	.	.	.	.
4B-y	.	[4d	ve-	.	.	.	.
=116	=116	=116	=116	=116	=116	=116	=116
4A	.	4d]	.	2r	.	1r	.
2G	.	8cL	.	.	.	.	.
.	.	8B-yJ	.	.	.	.	.
.	.	2A	.	2a	in	.	.
4F#i	.	.	.	.	.	.	.
=117	=117	=117	=117	=117	=117	=117	=117
*	*Xedit	*	*	*	*	*	*
1G	-nit	1G	-nit	2.b-y	no-	1r	.
.	.	.	.	4b-y	-mi-	.	.
=118	=118	=118	=118	=118	=118	=118	=118
1r	.	1r	.	4.b-y	-ne	2r	.
.	.	.	.	8g	.	.	.
.	.	.	.	2a	.	2cc	in
=119	=119	=119	=119	=119	=119	=119	=119
*	*	*	*	*lig	*	*	*
1r	.	1r	.	2g	Do-	2.dd	no-
.	.	.	.	2d	.	.	.
.	.	.	.	.	.	4dd	-mi-
*	*	*	*	*Xlig	*	*	*
=120	=120	=120	=120	=120	=120	=120	=120
2D	in	1r	.	2.f	.	2dd	-ne
*	*	*	*	*	*	*	*edit
[2F	no-	.	.	.	.	[2cc	Do-
.	.	.	.	4f	-mi-	.	.
=121	=121	=121	=121	=121	=121	=121	=121
4F]	.	1r	.	4.f	-ni,	4cc]	.
4F	-mi-	.	.	.	.	2a	-mi-
.	.	.	.	8e-j	.	.	.
4.F	-ne,	.	.	4c	.	.	.
.	.	.	.	[4d	.	8gL	.
8D	.	.	.	.	.	8fJ	.
!!LO:LB:g=original	*	*	*	*	*	*	*	*
=122	=122	=122	=122	=122	=122	=122	=122
*lig	*	*	*	*	*	*	*
*	*	*	*Xedit	*	*	*	*
2E-i	.	2G	in	4d]	.	2g	-ni,
.	.	.	.	4c	.	.	.
*	*	*	*	*col	*	*	*
2D	.	[2A	no-	4.d	.	4.f	in
.	.	.	.	8e	.	8g	.
*	*	*	*	*Xcol	*	*	*
*Xlig	*	*	*	*	*	*	*
=123	=123	=123	=123	=123	=123	=123	=123
2r	.	4A]	.	4f	.	8aL	.
.	.	.	.	.	.	8b-yJ	.
.	.	4A	-mi-	4e	.	2cc	no-
*	*edit	*	*	*	*	*	*
2F	in	2A	-ne	2c	.	.	.
.	.	.	.	.	.	4a	-mi-
=124	=124	=124	=124	=124	=124	=124	=124
*	*	*	*	*	*edit	*	*
2.G	no-	4G	.	4B-y	in	2b-y	-ne,
*	*	*	*edit	*	*	*	*
.	.	2B-y	Do-	2d	no-	.	.
.	.	.	.	.	.	4g	in
8FL	-mi-	4c	-mi-	4e-j	-mi-	4a	.
8E-jJ	.	.	.	.	.	.	.
=125	=125	=125	=125	=125	=125	=125	=125
4D	-ne	2d	-ni,	4f	-ne	2b-y	no-
*	*Xedit	*	*	*	*	*	*
4.G	Do-	.	.	4.B-y	Do-	.	.
.	.	4e-i	in	.	.	4cc	-mi-
8F	.	.	.	8A	-mi-	.	.
4D	.	[4f	no-	4F	-ni,	[4dd	-ne
=126	=126	=126	=126	=126	=126	=126	=126
*lig	*	*	*	*	*	*	*
2B-y	-mi-	4f]	.	4r	.	4dd]	.
*	*	*	*	*	*	*	*Xedit
.	.	4d	.	2.f	in	2b-y	Do-
2F	.	2c	-mi-	.	.	.	.
.	.	.	.	.	.	4a	-mi-
*Xlig	*	*	*	*	*	*	*
=127	=127	=127	=127	=127	=127	=127	=127
*	*edit	*	*	*	*	*	*
[1BB-y	-ni,	2B-y	-ne	2d	no-	2b-y	-ni,
*	*	*	*Xedit	*	*	*	*
.	.	2d	Do-	4.f	-mi-	2r	.
.	.	.	.	8e-i	.	.	.
!!LO:PB:g=original	*	*	*	*	*	*	*	*
=128	=128	=128	=128	=128	=128	=128	=128
1BB-]	.	4.f	-mi-	8dL	.	2dd	in
.	.	.	.	8cJ	.	.	.
.	.	.	.	2d	-ne	.	.
.	.	8e-i	.	.	.	.	.
.	.	8dL	.	.	.	2ff	no-
.	.	8cJ	.	.	.	.	.
.	.	4d	.	4B-y	.	.	.
=129	=129	=129	=129	=129	=129	=129	=129
1r	.	4c	.	4c	.	4ee-i	-mi-
.	.	4B-y	.	2d	Do-	2dd	-ne
*	*	*	*edit	*	*	*	*
.	.	2G	-ni,	.	.	.	.
.	.	.	.	4e	.	8ccL	.
.	.	.	.	.	.	8b-yJ	.
=130	=130	=130	=130	=130	=130	=130	=130
4r	.	4.F	Do-	4.f	-mi-	4a	.
4.F	Do-	.	.	.	.	4.cc	Do-
.	.	8G	.	8e	.	.	.
.	.	8AL	.	2c	-ni,	.	.
8G	.	8B-yJ	.	.	.	8b-yL	.
4A	.	4c	.	.	.	8a	.
.	.	.	.	.	.	8gJ	.
=131	=131	=131	=131	=131	=131	=131	=131
2D	.	2d	.	4r	.	8fL	.
.	.	.	.	.	.	8e	.
.	.	.	.	4A	Do-	8d	.
.	.	.	.	.	.	8cJ	.
4G	-mi-	4B-y	.	4B-y	.	4d	.
4C	.	[4c	.	[4G	.	[4e	.
=132	=132	=132	=132	=132	=132	=132	=132
*lig	*	*	*	*	*	*	*
*	*Xedit	*	*	*	*	*	*
2E	-ni.	8cL]	.	8GL]	.	8eL]	.
.	.	8B-yJ	.	8A	.	8fJ	.
.	.	4G	.	8B-y	.	2g	-mi-
.	.	.	.	8cJ	.	.	.
2D	.	2A	-mi-	2d	-mi-	.	.
.	.	.	.	.	.	4f#i	.
*Xlig	*	*	*	*	*	*	*
=133	=133	=133	=133	=133	=133	=133	=133
*M3/2	*	*M3/2	*	*M3/2	*	*M3/2	*
*met(O)	*	*met(O)	*	*met(O)	*	*met(O)	*
*	*	*	*Xedit	*	*	*	*
!!LO:TX:t=[whole]=[whole-dot]
2r	.	1G	-ni.	1B-y	-ni.	1g	-ni.
2r	.	.	.	.	.	.	.
2G	O-	2G	O-	2G	.	2b-y	O-
!!LO:LB:g=original	*	*	*	*	*	*	*	*
=134	=134	=134	=134	=134	=134	=134	=134
!	!	!	!	!	!	!LO:TX:a:t=.	!
1F	-san-	2.A	-san-	2r	.	2.cc	-san-
.	.	.	.	2r	.	.	.
.	.	4B-y	.	.	.	4dd	.
*	*	*	*	*	*Xedit	*	*
2E	.	2c	.	2g	O-	2ee	.
=135	=135	=135	=135	=135	=135	=135	=135
1D	-na,	1d	-na,	2.f	-san-	1a	-na,
.	.	.	.	4d	.	.	.
*	*	*	*edit	*	*	*	*edit
2r	.	2A	o-	2e	.	2cc	o-
=136	=136	=136	=136	=136	=136	=136	=136
2r	.	2B-y	-san-	2.d	.	2.b-y	-san-
2r	.	2G	.	.	.	.	.
.	.	.	.	4e	.	4g	.
*	*edit	*	*	*	*	*	*
2D	o-	2d	.	2f	.	2a	.
=137	=137	=137	=137	=137	=137	=137	=137
4.E	-san-	1G	-na,	1g	-na,	4g	.
.	.	.	.	.	.	4a	.
8F	.	.	.	.	.	.	.
1G	-na,	.	.	.	.	4b-y	.
.	.	.	.	.	.	4cc	.
*	*	*	*	*	*edit	*	*
.	.	2B-y	o-	4.d	o-	2dd	.
.	.	.	.	8e	.	.	.
=138	=138	=138	=138	=138	=138	=138	=138
2A	o-	2c	-san-	2f	-san-	1cc	.
1G	.	1d	.	1g	-na	.	.
.	.	.	.	.	.	2bni	.
=139	=139	=139	=139	=139	=139	=139	=139
*	*	*	*	*	*Xedit	*	*
1A	-san-	1c	-na,	1e	in	1cc	-na
2G	.	2e	o-	2g	ex-	2r	.
=140	=140	=140	=140	=140	=140	=140	=140
*	*	*	*	*	*	*	*Xedit
1F	-na,	1f	-san-	1a	-cel-	2.cc	in
.	.	.	.	.	.	4dd	.
2C	o-	2e	.	2g	.	2ee	ex-
!!LO:LB:g=original	*	*	*	*	*	*	*	*
=141	=141	=141	=141	=141	=141	=141	=141
*	*	*lig	*	*	*	*	*
*	*	*col	*	*	*	*	*
1D	-san-	1d	-na	1f	.	1ff	-cel-
2E	.	[2g	.	2g	.	2ee	.
=142	=142	=142	=142	=142	=142	=142	=142
2G	.	2g]	.	2G	.	2dd	.
*	*	*	*	*	*	*	*edit
1D	-na	1a	.	1d	-sis,	1ff	-sis,
*	*	*Xcol	*	*	*	*	*
*	*	*Xlig	*	*	*	*	*
=143	=143	=143	=143	=143	=143	=143	=143
*	*Xedit	*	*Xedit	*	*edit	*	*
1E	in	1.g	in	1Bni	in	2gg	in
.	.	.	.	.	.	2.ee	ex-
2C	ex-	.	.	2c	ex-	.	.
.	.	.	.	.	.	4dd	.
=144	=144	=144	=144	=144	=144	=144	=144
*lig	*	*	*	*	*	*	*
2D	-cel-	2f	ex-	4.A	-cel-	1dd	-cel-
.	.	.	.	8B-y	.	.	.
1A	.	1e	-cel-	2c	.	.	.
.	.	.	.	2A	.	2cc#i	.
*Xlig	*	*	*	*	*	*	*
=145	=145	=145	=145	=145	=145	=145	=145
*	*edit	*	*edit	*	*	*	*
1D	-sis,	1.d	-sis,	1A	-sis,	1.dd	-sis,
2F	o-	.	.	2A	o-	.	.
=146	=146	=146	=146	=146	=146	=146	=146
*	*	*	*	*lig	*	*	*
2G	-san-	1e	o-	2B-y	-san-	2r	.
2C	.	.	.	2c	.	2r	.
*	*	*	*	*Xlig	*	*	*
2D	-na	2f	.	2A	-na	2dd	o-
=147	=147	=147	=147	=147	=147	=147	=147
*	*	*	*	*lig	*	*	*
1.r	.	2g	-san-	2G	in	1ee	-san-
.	.	2c	.	2A	.	.	.
*	*	*	*	*Xlig	*	*	*
.	.	2d	-na	2d	ex-	2ff	.
!!LO:LB:g=original	*	*	*	*	*	*	*	*
=148	=148	=148	=148	=148	=148	=148	=148
1c	in	1e	in	1c	-cel-	2gg	-na
.	.	.	.	.	.	2cc	in
2B-y	ex-	2d	ex-	2G	.	2dd	ex-
=149	=149	=149	=149	=149	=149	=149	=149
*col	*	*	*	*	*	*	*
2G	.	1g	-cel-	1d	-sis,	1ee	-cel-
1A	-cel-	.	.	.	.	.	.
*Xcol	*	*	*	*	*	*	*
.	.	2f	.	2c	o-	2ff	.
=150	=150	=150	=150	=150	=150	=150	=150
*	*	*	*	*lig	*	*	*
2G	.	2g	-sis,	2d	-san-	2b-y	-sis,
2A	.	2e	.	2c	.	2cc	.
*	*	*	*	*Xlig	*	*	*
2B-y	.	2d	.	2G	-na	2dd	o-
=151	=151	=151	=151	=151	=151	=151	=151
*	*	*lig	*	*	*	*	*
*	*	*	*	*	*Xedit	*	*
*	*	*col	*	*	*	*	*
1c	-sis,	1e	in	4c	in	2.g	-san-
.	.	.	.	4d	.	.	.
.	.	.	.	4e	.	.	.
.	.	.	.	4f	.	4a	.
2G	in	[2d	.	2g	.	2b-y	-na
=152	=152	=152	=152	=152	=152	=152	=152
*	*	*	*	*	*	*lig	*
*	*	*	*	*col	*	*	*
2D	ex-	2d]	.	2a	ex-	2f	in
*	*	*Xlig	*	*	*	*	*
*	*	*lig	*	*	*	*	*
2G	.	2B-y	ex-	2g	.	2g	.
*	*	*	*	*	*	*Xlig	*
2F	.	2c	.	[2c	-cel-	2a	ex-
*	*	*Xcol	*	*	*	*	*
*	*	*Xlig	*	*	*	*	*
=153	=153	=153	=153	=153	=153	=153	=153
2E-j	.	2G	.	2c]	.	1g	-cel-
1D	-cel-	1A	-cel-	1d	.	.	.
*	*Xedit	*	*Xedit	*Xcol	*	*	*Xedit
.	.	.	.	.	.	2f#i	.
=154	=154	=154	=154	=154	=154	=154	=154
0Gl	-sis.	0Gl	-sis.	0dl	-sis.	0gl	-sis.
==	==	==	==	==	==	==	==
*-	*-	*-	*-	*-	*-	*-	*-
!!!system-decoration: [*]
!!!YEM: ©2016 American Institute of Musicology
!!!RDF**kern: j = editorial accidental, optional, paren up
!!!RDF**kern: i = editorial accidental
!!!RDF**kern: l = terminal long
!!!PTL: Gaspar van Weerbeke: Collected Works. II. Masses, Part 2
!!!PPR: American Institute of Musicology
!!!PC#: Corpus Mensurabilis Musicae 106/II.2
!!!PDT: 2018
!!!PED: Kolb, Paul
!!!YEC: Copyright 2016, Kolb, Paul
!!!YEM: CC-BY-NC 4.0 (https://creativecommons.org/licenses/by-nc/4.0/legalcode)
!!!EED: Zybina, Karina
!!!EEV: 2021/09/12
!!!title: @{OPR} &mdash; @{OTL}
